!!!OTL: Der Maedchenmoerder (Halewijn - Ulinger).
!!!OTL-incipit: Es reitet ein Reiter durch Heu und Klee,
!!!ARE: Europa, Mitteleuropa, Deutschland (BRD), Ahrweiler, Bentgerhof
!!!YOR: 2, S. 78
!!    1912 aufgezeichnet (vor)
!!!SCT: Q0041B
!!!TXL: @@DE
!!!YEM: Copyright 1995, estate of Helmut Schaffrath.
**kern	**text
*ICvox	*
*M6/8	*
*k[f#]	*
*G:	*
{8d	1._Es
=1	=1
8d	reitet
8g	.
8g	ein
8g	Reiter
8a	.
8b	durch
=2	=2
8bL	Heu
8aJ	.
8a	und
4a}	Klee,
{8a	der
=3	=3
8.a	konnte
16a	.
8a	ſo
8a	wunderſchön
8b	.
8cc	.
=4	=4
8.dd	ſingen,
16b	.
8b	juchhe;
4b}	.
{16gL	ſo
16aJ	.
=5	=5
8.b	wun-
16b	-der-
8b	-ſchön
8b	konn-
8cc	-te
8dd	er
=6	=6
(4dd	ſin-
8ee)	.
8ddL	-gen
8ccJ}	.
{8b	ein
=7	=7
8.cc	Liedlein
16cc	.
8cc	aus
8cc	dreier-
8cc	.
8cc	-lei
=8	=8
(4cc	Stim-
8dd)	.
4b}	-men.
{16gL	ſo
16aJ	.
=9	=9
8.b	wun-
16b	-der-
8b	-ſchön
8b	konn-
8cc	-te
8dd	er
=10	=10
(4dd	ſin-
8ee)	.
8dd	-gen
8cc}	.
{8b	ein
=11	=11
8.cc	Liedlein
16cc	.
8cc	aus
8cc	dreier-
8cc	.
8cc	-lei
=12	=12
(4cc	Stim-
8dd)	.
4b}	-men.
==	==
!!!AGN: Ballade, Verfuehrung, Mord, Mordversuch bzw. Rache
!!!ONB: ESAC (Essen Associative Code) Database: BALLADE
!!!AMT: compound duple
!!!AIN: vox
!!!EED: Helmut Schaffrath
!!!EEV: 1.0
!!@@COMMENT:"Ldbl. Bonn' S. 12; 2. Aufl. S. 15. Bentgerhof Kr. Ahrweiler, vor 1912."
!!@@END:
!!!source: Deutsche Volkslieder mit ihren Melodien. Herausgegeben vom Deutschen Volksliedarchiv. Zweiter Band Balladen. Berlin 1939.
!!!page: 78
!!!ENC: Anna Maria Matuszewska
!!!EEV: 2025/02/17
*-	*-
